src/assets/logo/cisco.svg

<?xml version="1.0" encoding="UTF-8" standalone="no"?><!DOCTYPE svg PUBLIC "-//W3C//DTD SVG 1.1//EN" "http://www.w3.org/Graphics/SVG/1.1/DTD/svg11.dtd"><svg width="100%" height="100%" viewBox="0 0 540 200" version="1.1" xmlns="http://www.w3.org/2000/svg" xmlns:xlink="http://www.w3.org/1999/xlink" xml:space="preserve" xmlns:serif="http://www.serif.com/" style="fill-rule:evenodd;clip-rule:evenodd;stroke-linejoin:round;stroke-miterlimit:1.41421;"><g id="cisco"><g><rect id="path268" x="203.988" y="126.336" width="13.331" height="52.76" style="fill:#a0a0a0;fill-rule:nonzero;"/><path id="use360" d="M324.807,141.454c-0.536,-0.278 -4.822,-2.817 -11.198,-2.817c-8.635,0 -14.61,5.993 -14.61,14.073c0,7.84 5.726,14.085 14.61,14.085c6.266,0 10.624,-2.484 11.198,-2.8l0,14.161c-1.655,0.468 -6.203,1.877 -12.157,1.877c-14.986,0 -28.13,-10.324 -28.13,-27.323c0,-15.755 11.907,-27.31 28.13,-27.31c6.275,0 10.903,1.522 12.157,1.893l0,14.161Z" style="fill:#a0a0a0;fill-rule:nonzero;"/><path id="path284" d="M185.66,141.454c-0.536,-0.278 -4.822,-2.817 -11.198,-2.817c-8.635,0 -14.61,5.993 -14.61,14.073c0,7.84 5.726,14.085 14.61,14.085c6.267,0 10.624,-2.484 11.198,-2.8l0,14.161c-1.655,0.468 -6.202,1.877 -12.156,1.877c-14.986,0 -28.131,-10.324 -28.131,-27.323c0,-15.755 11.908,-27.31 28.131,-27.31c6.274,0 10.902,1.522 12.156,1.893l0,14.161Z" style="fill:#a0a0a0;fill-rule:nonzero;"/><path id="path288" d="M366.744,138.835c-7.909,0 -13.783,6.216 -13.783,13.875c0,7.675 5.874,13.887 13.783,13.887c7.9,0 13.791,-6.212 13.791,-13.887c0,-7.659 -5.891,-13.875 -13.791,-13.875m27.915,13.875c0,15.093 -11.667,27.322 -27.915,27.322c-16.249,0 -27.899,-12.229 -27.899,-27.322c0,-15.068 11.65,-27.311 27.899,-27.311c16.248,0 27.915,12.243 27.915,27.311" style="fill:#a0a0a0;fill-rule:nonzero;"/><path id="path292" d="M267.873,138.329c-0.199,-0.064 -5.811,-1.611 -10.422,-1.611c-5.341,0 -8.246,1.788 -8.246,4.322c0,3.214 3.918,4.336 6.11,5.027l3.678,1.168c8.652,2.75 12.596,8.666 12.596,15.093c0,13.255 -11.672,17.708 -21.873,17.708c-7.09,0 -13.732,-1.303 -14.387,-1.442l0,-12.141c1.174,0.295 6.765,1.961 12.588,1.961c6.634,0 9.682,-1.936 9.682,-4.926c0,-2.674 -2.639,-4.217 -5.945,-5.254c-0.807,-0.27 -2.019,-0.65 -2.846,-0.92c-7.423,-2.344 -13.614,-6.701 -13.614,-15.434c0,-9.869 7.398,-16.494 19.686,-16.494c6.49,0 12.596,1.573 12.993,1.679l0,11.264Z" style="fill:#a0a0a0;fill-rule:nonzero;"/><g id="g383"><path id="path296" d="M131.238,69.636c0,-3.636 -2.973,-6.583 -6.617,-6.583c-3.644,0 -6.621,2.947 -6.621,6.583l0,13.849c0,3.656 2.977,6.608 6.621,6.608c3.644,0 6.617,-2.952 6.617,-6.608l0,-13.849Z" style="fill:#a0a0a0;fill-rule:nonzero;"/><path id="path300" d="M167.591,51.458c0,-3.636 -2.973,-6.592 -6.617,-6.592c-3.648,0 -6.621,2.956 -6.621,6.592l0,32.029c0,3.656 2.973,6.604 6.621,6.604c3.644,0 6.617,-2.948 6.617,-6.604l0,-32.029Z" style="fill:#a0a0a0;fill-rule:nonzero;"/><path id="path304" d="M203.945,26.587c0,-3.635 -2.973,-6.587 -6.617,-6.587c-3.648,0 -6.621,2.952 -6.621,6.587l0,70.059c0,3.656 2.973,6.608 6.621,6.608c3.644,0 6.617,-2.952 6.617,-6.608l0,-70.059Z" style="fill:#a0a0a0;fill-rule:nonzero;"/><path id="path308" d="M240.298,51.458c0,-3.636 -2.973,-6.592 -6.617,-6.592c-3.648,0 -6.621,2.956 -6.621,6.592l0,32.029c0,3.656 2.973,6.604 6.621,6.604c3.644,0 6.617,-2.948 6.617,-6.604l0,-32.029Z" style="fill:#a0a0a0;fill-rule:nonzero;"/><path id="path312" d="M276.61,69.636c0,-3.636 -2.951,-6.583 -6.578,-6.583c-3.644,0 -6.617,2.947 -6.617,6.583l0,13.849c0,3.656 2.973,6.608 6.617,6.608c3.627,0 6.578,-2.952 6.578,-6.608l0,-13.849Z" style="fill:#a0a0a0;fill-rule:nonzero;"/></g><g id="use385"><path id="path2961" serif:id="path296" d="M276.627,69.636c0,-3.636 -2.972,-6.583 -6.616,-6.583c-3.645,0 -6.621,2.947 -6.621,6.583l0,13.849c0,3.656 2.976,6.608 6.621,6.608c3.644,0 6.616,-2.952 6.616,-6.608l0,-13.849Z" style="fill:#a0a0a0;fill-rule:nonzero;"/><path id="path3001" serif:id="path300" d="M312.98,51.458c0,-3.636 -2.972,-6.592 -6.616,-6.592c-3.649,0 -6.621,2.956 -6.621,6.592l0,32.029c0,3.656 2.972,6.604 6.621,6.604c3.644,0 6.616,-2.948 6.616,-6.604l0,-32.029Z" style="fill:#a0a0a0;fill-rule:nonzero;"/><path id="path3041" serif:id="path304" d="M349.334,26.587c0,-3.635 -2.973,-6.587 -6.617,-6.587c-3.648,0 -6.621,2.952 -6.621,6.587l0,70.059c0,3.656 2.973,6.608 6.621,6.608c3.644,0 6.617,-2.952 6.617,-6.608l0,-70.059Z" style="fill:#a0a0a0;fill-rule:nonzero;"/><path id="path3081" serif:id="path308" d="M385.688,51.458c0,-3.636 -2.973,-6.592 -6.617,-6.592c-3.648,0 -6.621,2.956 -6.621,6.592l0,32.029c0,3.656 2.973,6.604 6.621,6.604c3.644,0 6.617,-2.948 6.617,-6.604l0,-32.029Z" style="fill:#a0a0a0;fill-rule:nonzero;"/><path id="path3121" serif:id="path312" d="M422,69.636c0,-3.636 -2.952,-6.583 -6.579,-6.583c-3.644,0 -6.616,2.947 -6.616,6.583l0,13.849c0,3.656 2.972,6.608 6.616,6.608c3.627,0 6.579,-2.952 6.579,-6.608l0,-13.849Z" style="fill:#a0a0a0;fill-rule:nonzero;"/></g></g></g></svg>

<?xml version="1.0" encoding="UTF-8" standalone="no"?>
<!DOCTYPE svg PUBLIC "-//W3C//DTD SVG 1.1//EN" "http://www.w3.org/Graphics/SVG/1.1/DTD/svg11.dtd">
<svg width="100%" height="100%" viewBox="0 0 540 200" version="1.1" xmlns="http://www.w3.org/2000/svg" xmlns:xlink="http://www.w3.org/1999/xlink" xml:space="preserve" xmlns:serif="http://www.serif.com/" style="fill-rule:evenodd;clip-rule:evenodd;stroke-linejoin:round;stroke-miterlimit:2;">
    <g id="cisco">
        <g>
            <rect id="path268" x="203.988" y="126.336" width="13.331" height="52.76" style="fill:rgb(208,208,208);"/>
            <path id="use360" d="M324.807,141.454C324.271,141.176 319.985,138.637 313.609,138.637C304.974,138.637 298.999,144.63 298.999,152.71C298.999,160.55 304.725,166.795 313.609,166.795C319.875,166.795 324.233,164.311 324.807,163.995L324.807,178.156C323.152,178.624 318.604,180.033 312.65,180.033C297.664,180.033 284.52,169.709 284.52,152.71C284.52,136.955 296.427,125.4 312.65,125.4C318.925,125.4 323.553,126.922 324.807,127.293L324.807,141.454Z" style="fill:rgb(208,208,208);fill-rule:nonzero;"/>
            <path id="path284" d="M185.66,141.454C185.124,141.176 180.838,138.637 174.462,138.637C165.827,138.637 159.852,144.63 159.852,152.71C159.852,160.55 165.578,166.795 174.462,166.795C180.729,166.795 185.086,164.311 185.66,163.995L185.66,178.156C184.005,178.624 179.458,180.033 173.504,180.033C158.518,180.033 145.373,169.709 145.373,152.71C145.373,136.955 157.281,125.4 173.504,125.4C179.778,125.4 184.406,126.922 185.66,127.293L185.66,141.454Z" style="fill:rgb(208,208,208);fill-rule:nonzero;"/>
            <path id="path288" d="M366.744,138.835C358.835,138.835 352.961,145.051 352.961,152.71C352.961,160.385 358.835,166.597 366.744,166.597C374.644,166.597 380.535,160.385 380.535,152.71C380.535,145.051 374.644,138.835 366.744,138.835M394.659,152.71C394.659,167.803 382.992,180.032 366.744,180.032C350.495,180.032 338.845,167.803 338.845,152.71C338.845,137.642 350.495,125.399 366.744,125.399C382.992,125.399 394.659,137.642 394.659,152.71" style="fill:rgb(208,208,208);fill-rule:nonzero;"/>
            <path id="path292" d="M267.873,138.329C267.674,138.265 262.062,136.718 257.451,136.718C252.11,136.718 249.205,138.506 249.205,141.04C249.205,144.254 253.123,145.376 255.315,146.067L258.993,147.235C267.645,149.985 271.589,155.901 271.589,162.328C271.589,175.583 259.917,180.036 249.716,180.036C242.626,180.036 235.984,178.733 235.329,178.594L235.329,166.453C236.503,166.748 242.094,168.414 247.917,168.414C254.551,168.414 257.599,166.478 257.599,163.488C257.599,160.814 254.96,159.271 251.654,158.234C250.847,157.964 249.635,157.584 248.808,157.314C241.385,154.97 235.194,150.613 235.194,141.88C235.194,132.011 242.592,125.386 254.88,125.386C261.37,125.386 267.476,126.959 267.873,127.065L267.873,138.329Z" style="fill:rgb(208,208,208);fill-rule:nonzero;"/>
            <g id="g383">
                <path id="path296" d="M131.238,69.636C131.238,66 128.265,63.053 124.621,63.053C120.977,63.053 118,66 118,69.636L118,83.485C118,87.141 120.977,90.093 124.621,90.093C128.265,90.093 131.238,87.141 131.238,83.485L131.238,69.636Z" style="fill:rgb(208,208,208);fill-rule:nonzero;"/>
                <path id="path300" d="M167.591,51.458C167.591,47.822 164.618,44.866 160.974,44.866C157.326,44.866 154.353,47.822 154.353,51.458L154.353,83.487C154.353,87.143 157.326,90.091 160.974,90.091C164.618,90.091 167.591,87.143 167.591,83.487L167.591,51.458Z" style="fill:rgb(208,208,208);fill-rule:nonzero;"/>
                <path id="path304" d="M203.945,26.587C203.945,22.952 200.972,20 197.328,20C193.68,20 190.707,22.952 190.707,26.587L190.707,96.646C190.707,100.302 193.68,103.254 197.328,103.254C200.972,103.254 203.945,100.302 203.945,96.646L203.945,26.587Z" style="fill:rgb(208,208,208);fill-rule:nonzero;"/>
                <path id="path308" d="M240.298,51.458C240.298,47.822 237.325,44.866 233.681,44.866C230.033,44.866 227.06,47.822 227.06,51.458L227.06,83.487C227.06,87.143 230.033,90.091 233.681,90.091C237.325,90.091 240.298,87.143 240.298,83.487L240.298,51.458Z" style="fill:rgb(208,208,208);fill-rule:nonzero;"/>
                <path id="path312" d="M276.61,69.636C276.61,66 273.659,63.053 270.032,63.053C266.388,63.053 263.415,66 263.415,69.636L263.415,83.485C263.415,87.141 266.388,90.093 270.032,90.093C273.659,90.093 276.61,87.141 276.61,83.485L276.61,69.636Z" style="fill:rgb(208,208,208);fill-rule:nonzero;"/>
            </g>
            <g id="use385">
                <path id="path2961" serif:id="path296" d="M276.627,69.636C276.627,66 273.655,63.053 270.011,63.053C266.366,63.053 263.39,66 263.39,69.636L263.39,83.485C263.39,87.141 266.366,90.093 270.011,90.093C273.655,90.093 276.627,87.141 276.627,83.485L276.627,69.636Z" style="fill:rgb(208,208,208);fill-rule:nonzero;"/>
                <path id="path3001" serif:id="path300" d="M312.98,51.458C312.98,47.822 310.008,44.866 306.364,44.866C302.715,44.866 299.743,47.822 299.743,51.458L299.743,83.487C299.743,87.143 302.715,90.091 306.364,90.091C310.008,90.091 312.98,87.143 312.98,83.487L312.98,51.458Z" style="fill:rgb(208,208,208);fill-rule:nonzero;"/>
                <path id="path3041" serif:id="path304" d="M349.334,26.587C349.334,22.952 346.361,20 342.717,20C339.069,20 336.096,22.952 336.096,26.587L336.096,96.646C336.096,100.302 339.069,103.254 342.717,103.254C346.361,103.254 349.334,100.302 349.334,96.646L349.334,26.587Z" style="fill:rgb(208,208,208);fill-rule:nonzero;"/>
                <path id="path3081" serif:id="path308" d="M385.688,51.458C385.688,47.822 382.715,44.866 379.071,44.866C375.423,44.866 372.45,47.822 372.45,51.458L372.45,83.487C372.45,87.143 375.423,90.091 379.071,90.091C382.715,90.091 385.688,87.143 385.688,83.487L385.688,51.458Z" style="fill:rgb(208,208,208);fill-rule:nonzero;"/>
                <path id="path3121" serif:id="path312" d="M422,69.636C422,66 419.048,63.053 415.421,63.053C411.777,63.053 408.805,66 408.805,69.636L408.805,83.485C408.805,87.141 411.777,90.093 415.421,90.093C419.048,90.093 422,87.141 422,83.485L422,69.636Z" style="fill:rgb(208,208,208);fill-rule:nonzero;"/>
            </g>
        </g>
    </g>
</svg>
